tetrification/src/assets/images/life2.svg

<svg width="39" height="34" viewBox="0 0 39 34" fill="none" xmlns="http://www.w3.org/2000/svg">
<path d="M22.2061 0V5.5528H16.6533V0H5.5528V5.5528H0V16.6533H5.5528V22.2061H11.1056V27.7589H16.6584V33.3117H22.2112V27.7589H27.764V22.2061H33.3168V16.6533H38.8696V5.5528H33.3168V0H22.2061Z" fill="#DF654D"/>
</svg>

<svg width="39" height="34" fill="none" xmlns="http://www.w3.org/2000/svg"><path d="M22.206 0v5.553h-5.553V0h-11.1v5.553H0v11.1h5.553v5.553h5.553v5.553h5.552v5.553h5.553v-5.553h5.553v-5.553h5.553v-5.553h5.553v-11.1h-5.553V0h-11.11Z" fill="#DF654D"/></svg>
